!!!COM: Johannes Brahms
!!!CNT: Deutscher
!!!TXO: Deutsche
!!!OTL: Liebesglut
!!!OPS: Op. 47
!!!ONM: No. 2
!!!LYR: Nach Hafis von Daumer
!!!ONB: Original key: f minor
!!!ENC: Ayako Kataoka
!!!EED: Leigh VanHandel
!!!YOR: C.F. Peters, Brahms Lieder fu2r eine Singstimme mit Klavierbegleitung, Band III, ausgabe fu2r tiefere Stimme
!!!ODT: 1868/
!!NB: Vocal melody and text only encoded.
**kern	**silbe
*clefG2	*
*k[b-e-a-d-g-c-]	*
*M2/4	*
*MM[allegro]	*
!! tempo indication: appassionato
=4	=4
4r	.
8r	.
{8e-	{Die
=5	=5
4.e-	Flam-
8e-	-me
=6	=6
4.f}	hier,}
{8f	{die
=7	=7
8dd-	wil-
8b-}	-de,}
{8g-	{zu
8f	ver-
=8	=8
4e-	-heh-
4g-}	-len,}
=9	=9
4r	.
8r	.
{8g-	{die
=10	=10
4.g-	Schmer-
8g-	-zen
=11	=11
4.a-	al-
8a-}	-le,}
=12	=12
{8ff	{wel-
8ddn	-che
8b-	mich
8a-	zer-
=13	=13
4g-	qua2-
4b-}	-len,}
=14	=14
4r	.
8r	.
{8ee-	{ver-
=15	=15
4.dd-	-mag
8an	ich
=16	=16
4.b-}	es,}
{8ee-	{da
=17	=17
8dd-	al-
8an	-le
8b-	Win-
8f	-de
=18	=18
4g-	rings-
8dn	-um
8d	die
=19	=19
8f	Gru2n-
8e-	-de
8g-	mei-
8b-	-ner
=20	=20
4.dd-	Trau-
8cc-	-rig-
=21	=21
4a-	-keit
4ff	er-
=22	=22
2ee-	za2h-
=23	=23
4ddn}	-len?}
4r	.
=27	=27
4r	.
8r	.
{8b-	{Dass
=28	=28
4b-	ich,
8r	.
8cc-	ein
=29	=29
8b-	Sta2ub-
8a-	-chen
8a-	dei-
8ee-	-nes
=30	=30
4.ddn	We-
8cc-	-ges
=31	=31
4b-	sta2u-
8f}	-be,}
{8a-	{wie
=32	=32
4.g-	magst
8cc-	du
=33	=33
4g-}	doch,}
8r	.
{8cc-	{o
=34	=34
4.g-}	sprich,}
{8g-	{wie
=35	=35
4.b-	darfst
8b-	du
=36	=36
2dd-	schma2-
=37	=37
4ccn}	-len?}
8r	.
{8ccn	{Ver-
=38	=38
4.ccn	-kla-
8bn	-ge
=39	=39
4.an}	dich,}
{8a	{ver-
=40	=40
8gn	-kla-
8f	-ge
8cn	das
8dn	Ver-
=41	=41
4en	-ha2ng-
4e}	-nis,}
=42	=42
4r	.
8r	.
{8cc-	{das
=43	=43
4.cc-	wal-
8b-	-tet
=44	=44
4.a-	u2-
8a-	-ber
=45	=45
8g-	al-
8f-	-le
8c-	Men-
8d-	-schen-
=46	=46
4e-	-see-
4e-}	-len!}
=50	=50
*k[b-e-a-]	*
4r	.
{4d	{Da
=51	=51
4.d	sel-
8d	-bi-
=52	=52
4.f#	-ges
8f#	ver-
=53	=53
4.an	-ord-
8f#	-ne-
=54	=54
4d}	-te,}
{4dd	{das
=55	=55
2d	ew-
=56	=56
4d}	-ge,}
4r	.
=58	=58
4r	.
{4dd	{wie
=59	=59
[2dd	al-
=60	=60
4dd]	|
4b-	-le
=61	=61
[2b-	soll-
=62	=62
4b-]	|
4g-	-ten
=63	=63
4f	ih-
4e-	-re
=64	=64
4d	We-
4e-	-ge
=65	=65
2b-	wa2h-
=66	=66
4b-}	-len,}
4r	.
=70	=70
4r	.
{4b-	{da
=71	=71
*M4/4	*
2.b-	wur-
4bn	-de
=72	=72
2.cc	dei-
4cc	-nem
=73	=73
4ff	Lo-
4dd	-cken-
4b-	-haar
4a-	der
=74	=74
4a-	Auf-
4g}	-trag,}
4r	.
{4b-	{mir
=75	=75
2ee-	Eh-
4dd	-re,
4r	.
=76	=76
2dd-	Glau-
4cc	-ben
4r	.
=77	=77
4.cc-	und
8cc-	Ver
4ee-	nunft
4cc-	zu
=78	=78
(4.b-	steh-
8a-)	|
4gn}	-len,}
8r	.
{8g	{mir
=79	=79
2cc	Eh-
4bn	-re,
4r	.
=80	=80
2b-	Glau-
4an	-ben
4r	.
=81	=81
4a-	und
4cc-	Ver
4ff-	-nunft
4cc-	zu
=82	=82
(2.b-	steh-
4d)	|
=83	=83
4e-}	-len.}
4r	.
2r	.
*-	*-
